X:73
T:Buckskin Breeches
R:slip jig
B:Roche Collection
Z:hn-slipjig-73
M:9/8
K:G
G2B AGF AGF | G2B AGF GED | G2B AGF AGF | EGE c2A GED :||: fed ded d2d |
fed dfa gfe |1 fed ded cBA | EGE c2A GED :|2 dDD ADD GED | EGE c2A GED ||
<end>
<start>
